X:1
T:I Shall Be Changed
T:I Shall Be Changed
T:Harry L. Brooks
T:Harry L. Brooks, 1906
T:Public Domain Courtesy of the Cyber Hymnal™
T:Public Domain Courtesy of the Cyber Hymnal™
C:Harry L. Brooks
Z:Public Domain
Z:Courtesy of the Cyber Hymnal™
%%score ( 1 2 ) ( 3 4 )
L:1/8
Q:1/4=125
M:6/4
K:C
V:1 treble 
V:2 treble 
V:3 bass 
V:4 bass 
V:1
 [EG]3 [EG] [EG]2 G2 [FA]2 [FB]2 | [Ec]2 [EB]3 [EA] [FB]4 [FG]2 | %2
w: 1.~Filled with my sin to the|Sav- ior I came, This|
w: 2.~Changed all my grief to a|heart full of song, And|
w: 3.~When through the por- tals of|glo- ry I’ve passed, I|
 [FG]3 [Fd] [Fd]2 [Fd]3 [E^c] [Fd]2 | [Ee]2 [Gc]2 [Af]2 [Ge]6 | %4
w: po- wer has changed me, all|praise to His name;|
w: now I’m con- fid- ing in|Him all day long;|
w: then shall be changed to His|im- age at last;|
 [EG]3 [EG] [EG]2 [EG]2 [EA]2 [EB]2 | [Ec]2 [Ed]2 [Ec]2 [FA]4 z2 | %6
w: Grace all suf- fi- cient He|gives me each day;|
w: Ten- der com- pas- sion and|love He has shown,|
w: I shall be like Him in|beau- ty to shine,|
 [EG]2 [FA]2 [GB]2 [Gc]2 [Fd]2 [Ee]2 | [Ad]2 [Gc]3 [GB] !fermata![Gc]4 z2 ||"^Refrain" G8 A2 B2 | %9
w: Trust- ing, I fol- low where|He leads the way.||
w: Cleansed me and healed me and|called me His own.|O what a|
w: Ev- er to live in His|pre- sence di- vine.||
 c8 [FB]2 [FA]2 | B6 [DF]4 [DF]2 | [DF]6- [DF]4 z2 | [DF]8 [^CE]2 [DF]2 | B8 [FA]2 [FB]2 | %14
w: |||||
w: change since He|came to my|heart! *|O what a|change since He|
w: |||||
 [EA]6 [CE]4 [CE]2 | [CE]6- [CE]4 z2 | G8 [EG]2 A2 B2 | c8 [FB]2 [Gc]2 | [Fd]6 [FA]4 [FA]2 | %19
w: |||||
w: bade sin de-|part! *|O what a change|* Je- sus|wrought in my|
w: |||||
 [FA]6- [FA]4 z2 | [Af]8 [Ge]2 [Fd]2 | [Ge]6 [Ec]4 [Ec]2 |!>(! [^Fd]6!>)! [FA]4 [=FB]2 | %23
w: ||||
w: soul! *|O what a|change since His|blood makes me|
w: ||||
 c6- [Ec]4 z2 |] %24
w: |
w: whole! *|
w: |
V:2
 x6 G2 x4 | x12 | x12 | x12 | x12 | x12 | x12 | x12 || (E3 E E2 E2) x4 | (E3 E E2 E2) x4 | %10
 (F4 F2) x6 | x12 | x12 | (F3 F F2 F2) x4 | x12 | x12 | E3 E E2 x8 | (E3 E E2 E2) x4 | x12 | x12 | %20
 x12 | x12 | x12 | E2 G3 F x6 |] %24
V:3
 [C,C]3 [C,C] [C,C]2 [E,C]2 [F,C]2 [D,D]2 | [C,G,]2 [C,G,]3 [C,C] [G,,G,D]4 [G,B,]2 | %2
w: ~ ~ ~ ~ ~ ~|~ ~ ~ ~ ~|
 [G,B,]3 [G,B,] [G,B,]2 [G,B,]3 [G,^A,] [G,B,]2 | [C,C]2 [E,G,]2 [F,C]2 [C,C]6 | %4
w: ~ ~ ~ ~ ~ ~|~ ~ ~ ~|
 [C,C]3 [C,C] [C,C]2 C2 C2 [B,C]2 | [A,C]2 [A,B,]2 [A,C]2 [F,C]4 z2 | %6
w: ~ ~ ~ ~ ~ ~|~ ~ ~ ~|
 [G,C]2 [F,C]2 [F,G,]2 [E,A,]2 [D,B,]2 [C,C]2 | [F,D]2 [G,E]3 [G,F] [CE]4 z2 || %8
w: ~ ~ ~ ~ ~ ~|~ ~ ~ ~|
 [C,C]3 [C,C] [C,C]2 [C,C]2 z4 | [C,G,]3 [C,G,] [C,G,]2 [C,G,]2 [D,G,]2 [G,B,]2 | %10
w: O what a change!|won- der- ful change since He|
 [G,D]4 [G,D]2 [G,B,]4 [G,B,]2 | [G,B,]6- [G,B,]4 z2 | %12
w: came in- to my|heart! *|
 [G,,G,B,]3 [G,,G,B,] [G,,G,B,]2 [G,,G,B,]2 z4 | [G,D]3 [G,D] [G,D]2 [G,D]2 [G,B,]2 [G,D]2 | %14
w: Owhat a change! mar-|vel- ous change since He bade|
 [C,C]4 [C,C]2 [C,G,]4 [C,G,]2 | [C,G,]6- [C,G,]4 z2 | [C,C]3 [C,C] [C,C]2 [C,C]2 z4 x2 | %17
w: all sin de- part!|O *|what a change! glor-|
 [C,G,]3 [C,G,] [C,G,]2 [C,G,]2 z4 | z4 [F,A,]2 [F,C]2 [F,C]2 [F,C]2 | [F,C]6- [F,C]4 z2 | %20
w: i- ous change He|wrought in my soul!|O *|
 [F,C]3 [F,C] [F,C]2 [F,C]2 [G,C]2 [A,C]2 | [G,C]6 G,4 G,2 | [D,A,]6 [D,D]4 [G,,D]2 | %23
w: what a change! what a change|since His blood|makes me whole,|
 C2 B,3 A, [C,G,]4 z2 |] %24
w: makes me whole! *|
V:4
 x12 | x12 | x12 | x12 | x6 C2 C2 x2 | x12 | x12 | x12 || x12 | x12 | x12 | x12 | x12 | x12 | x12 | %15
 x12 | x14 | x12 | x12 | x12 | x12 | x6 G,4 G,2 | x12 | C,6- x6 |] %24

